Pods/ProtonCore-UIFoundations/libraries/UIFoundations/Sources/Assets.xcassets/Images/IconSet/ic-file-image.imageset/ic-file-image.svg

<svg width="24" height="24" viewBox="0 0 24 24" fill="none" xmlns="http://www.w3.org/2000/svg">
<path fill-rule="evenodd" clip-rule="evenodd" d="M19.5 9V19.5C19.5 20.3284 18.8284 21 18 21H6C5.17157 21 4.5 20.3284 4.5 19.5V4.5C4.5 3.67157 5.17157 3 6 3H13.5V6.75C13.5 7.99264 14.5074 9 15.75 9H19.5ZM18.8787 7.5L15 3.62132V6.75C15 7.16421 15.3358 7.5 15.75 7.5H18.8787ZM3 4.5C3 2.84315 4.34315 1.5 6 1.5H13.7574C14.553 1.5 15.3161 1.81607 15.8787 2.37868L20.1213 6.62132C20.6839 7.18393 21 7.94699 21 8.74264V19.5C21 21.1569 19.6569 22.5 18 22.5H6C4.34315 22.5 3 21.1569 3 19.5V4.5ZM17.3353 18.4503C17.8771 18.4503 18.1905 17.8704 17.8727 17.4562L14.15 12.6056C13.9911 12.3985 13.6642 12.3985 13.5052 12.6056L10.798 16.1331L9.29285 14.1718C9.1339 13.9647 8.80701 13.9647 8.64806 14.1718L6.1274 17.4562C5.80952 17.8704 6.12296 18.4503 6.66473 18.4503H17.3353ZM10.1999 12.45C10.8627 12.45 11.3999 11.9128 11.3999 11.25C11.3999 10.5873 10.8627 10.05 10.1999 10.05C9.53717 10.05 8.99991 10.5873 8.99991 11.25C8.99991 11.9128 9.53717 12.45 10.1999 12.45Z" fill="#0C0C14"/>
</svg>

<svg xmlns="http://www.w3.org/2000/svg" width="24" height="24" viewBox="0 0 24 24">
  <g class="ic-file-image">
    <path fill-rule="evenodd" d="M19.5 9v10.5A1.5 1.5 0 0 1 18 21H6a1.5 1.5 0 0 1-1.5-1.5v-15A1.5 1.5 0 0 1 6 3h7.5v3.75A2.25 2.25 0 0 0 15.75 9h3.75Zm-.621-1.5L15 3.621V6.75c0 .414.336.75.75.75h3.129ZM3 4.5a3 3 0 0 1 3-3h7.757a3 3 0 0 1 2.122.879L20.12 6.62A3 3 0 0 1 21 8.743V19.5a3 3 0 0 1-3 3H6a3 3 0 0 1-3-3v-15Zm14.335 13.95c.542 0 .855-.58.538-.994l-3.723-4.85a.412.412 0 0 0-.645 0l-2.707 3.527-1.505-1.961a.412.412 0 0 0-.645 0l-2.52 3.284c-.318.414-.005.994.537.994h10.67Zm-7.135-6a1.2 1.2 0 1 0 0-2.4 1.2 1.2 0 0 0 0 2.4Z" class="Icon"/>
  </g>
</svg>
